X:1
T:After the Duck
M:4/4
L:1/8
C:Taz Tarry
S:Copyright B.Tarry 16th. April 1990
R:Polka/Reel
Q:1/4=140
K:G
G2BDG2BD|GBAGE2D2|DEFGA2G2|FGEF DEFD|
G2BDG2BD|GBAGE2D2|DEFG AGFE|DEFAG4:|
B2Bd cBAG|FAEA DEFD|B2Bd cBAG|FAGF GFED|
B2Bd cBAG|FAEA DEFD|FADA EADA|DEFAG4:|

